src/assets/icons/logo.svg

<svg xmlns="http://www.w3.org/2000/svg" width="73" height="16"><path d="M.89911.8956v.78742H7.5465v.90314H.89912v1.68302H0V0h7.5465v.8956H.89912ZM14.4769 2.5862a1.26676 1.26676 0 0 0 .5051-.10314 1.30339 1.30339 0 0 0 .4092-.27673c.2425-.24461.3786-.57447.3788-.91824a1.21397 1.21397 0 0 0-.1035-.50314 1.29424 1.29424 0 0 0-.2753-.40755 1.34854 1.34854 0 0 0-.4092-.27673 1.26694 1.26694 0 0 0-.5051-.10063H8.21595v4.27672h.89911V2.5862h4.13444l1.5633 1.68302h1.2275L14.4769 2.5862ZM9.11506.9057h5.35174a.35715.35715 0 0 1 .149.03019.41966.41966 0 0 1 .1263.08805.42243.42243 0 0 1 .0909.1283.37246.37246 0 0 1 .0302.14717.3725.3725 0 0 1-.0302.14717.42946.42946 0 0 1-.0884.1283.37866.37866 0 0 1-.1288.08805.3572.3572 0 0 1-.149.03019H9.11506V.9057ZM23.7937 1.30066a2.18994 2.18994 0 0 0-.4546-.67421 2.15942 2.15942 0 0 0-.6794-.46038 2.1287 2.1287 0 0 0-.836-.16604h-3.2555a2.11092 2.11092 0 0 0-.8309.16604 2.2184 2.2184 0 0 0-.6668.46038 2.15313 2.15313 0 0 0-.4571.67421 2.09203 2.09203 0 0 0-.1692.82767v2.14088h.8789v-1.2327h5.7306v1.2327h.8991V2.12833a2.07274 2.07274 0 0 0-.1591-.82767ZM18.5682.90569h3.2555c.1652-.0018.3288.03166.4799.09811.2993.12361.5379.35942.6642.65661.0638.14957.0964.31046.096.47295l-5.7407.00503a1.19865 1.19865 0 0 1 .1061-.47798 1.29498 1.29498 0 0 1 .2702-.39497 1.27641 1.27641 0 0 1 .3965-.26667 1.16106 1.16106 0 0 1 .4723-.09308ZM32.0802 0v4.28679h-.8966v-2.6717l-2.8261 2.18868-2.8262-2.18868v2.6717h-.8941V0l3.7203 2.66918L32.0802 0ZM33.8153 1.52706a1.26994 1.26994 0 0 0-.0758.15597h6.5666v.90314h-6.5666c.0217.05367.047.10578.0758.15598.0734.12464.1663.23676.2753.33207.1093.09428.234.16916.3687.22139.1382.05147.2844.07788.4319.07799h5.4149v.89559h-5.4149a2.09035 2.09035 0 0 1-.8334-.16855 2.14957 2.14957 0 0 1-.6819-.45786 2.16501 2.16501 0 0 1-.4572-.67673 2.12908 2.12908 0 0 1-.1691-.83145c0-.28562.0575-.56835.1691-.83144a2.16485 2.16485 0 0 1 .4572-.67673 2.1991 2.1991 0 0 1 .6819-.46038 2.13331 2.13331 0 0 1 .8334-.16603h5.4149v.90565h-5.4149a1.23966 1.23966 0 0 0-.4319.078 1.26412 1.26412 0 0 0-.3687.22138 1.35103 1.35103 0 0 0-.2753.32201ZM48.6634 0l-2.0836 4.28679-1.8235-3.08428-1.8235 3.08428L40.8517 0h.9976l1.1517 2.52075L44.3876 0h.745l1.3765 2.52075L47.6683 0h.9951ZM55.9345 1.30317a2.2162 2.2162 0 0 0-.4597-.67672 2.1703 2.1703 0 0 0-.6819-.46038 2.11604 2.11604 0 0 0-.8335-.16604h-3.2605a2.13637 2.13637 0 0 0-.836.16604 2.2003 2.2003 0 0 0-.6819.46038 2.16464 2.16464 0 0 0-.4571.67672 2.12738 2.12738 0 0 0 0 1.66289c.1079.25238.2631.48203.4571.67673.1956.19492.4271.35039.6819.45786.264.11294.5486.17032.836.16856h3.2605c.2866.002.5704-.0554.8335-.16856a2.12238 2.12238 0 0 0 .6819-.45786 2.21607 2.21607 0 0 0 .4597-.67673 2.15992 2.15992 0 0 0 .1665-.83144c0-.28537-.0566-.56793-.1665-.83145Zm-1.9751 2.07044h-3.2605a1.16837 1.16837 0 0 1-.4799-.09811 1.2753 1.2753 0 0 1-.3965-.26667 1.29486 1.29486 0 0 1-.2702-.39497 1.20425 1.20425 0 0 1-.096-.47798 1.21657 1.21657 0 0 1 .096-.4805 1.29486 1.29486 0 0 1 .2702-.39497 1.27529 1.27529 0 0 1 .3965-.26667 1.1683 1.1683 0 0 1 .4799-.09811h3.2605a1.17868 1.17868 0 0 1 .4799.09811c.1479.06318.2824.15366.3965.26667.1128.11607.2036.25161.2677.4.0663.15152.0998.31523.0985.4805a1.1653 1.1653 0 0 1-.0985.47799 1.33343 1.33343 0 0 1-.2677.39496 1.27502 1.27502 0 0 1-.3864.26164 1.17867 1.17867 0 0 1-.49.09811ZM63.0365 2.5862a1.26676 1.26676 0 0 0 .5051-.10314 1.30339 1.30339 0 0 0 .4092-.27673 1.31984 1.31984 0 0 0 .2753-.41007 1.2206 1.2206 0 0 0 .1035-.50314 1.25329 1.25329 0 0 0-.1035-.50314c-.13-.30935-.3754-.55643-.6845-.68931a1.26694 1.26694 0 0 0-.5051-.10063H56.773v4.27672h.8991V2.5862h4.1345l1.5633 1.68302h1.2275L63.0365 2.5862ZM57.6721.9057h5.3644a.35459.35459 0 0 1 .1465.03019.43122.43122 0 0 1 .1288.08805.41562.41562 0 0 1 .0884.1283.35378.35378 0 0 1 .0328.14591.39824.39824 0 0 1-.0303.14843.4813.4813 0 0 1-.0884.1283.38807.38807 0 0 1-.1313.08805.35462.35462 0 0 1-.1465.03019h-5.3644V.9057ZM69.0803 2.13585 73 4.26918h-1.8588l-3.1015-1.69057h-2.1619v1.69057h-.889V0h.889v1.69056h2.1619L71.1412 0H73l-3.9197 2.13585ZM16.2068 7.15206v1.46415H8.83709v7.37609h-1.4699V8.61621H0V7.15206h16.2068ZM20.7074 10.1106a2.83466 2.83466 0 0 0-.3005.7295H34.876v1.4617H20.4069c.0647.2562.1659.5019.3005.7295.3429.6041.8856 1.0709 1.5356 1.3208.3333.1254.6867.1893 1.0431.1887H34.876v1.4591H23.2861a4.3409 4.3409 0 0 1-1.725-.3497 4.42788 4.42788 0 0 1-1.4118-.9459 4.45686 4.45686 0 0 1-.9522-1.4063 4.41732 4.41732 0 0 1-.3485-1.7195c0-.5906.1185-1.1752.3485-1.71949.4509-1.06046 1.2989-1.9042 2.364-2.3522a4.33813 4.33813 0 0 1 1.725-.34717H34.876v1.44403H23.2861a2.8941 2.8941 0 0 0-1.0431.18867 3.01099 3.01099 0 0 0-.884.52831 3.13273 3.13273 0 0 0-.6516.78995ZM53.6741 9.84655a4.50217 4.50217 0 0 0-.9445-1.39371 4.4292 4.4292 0 0 0-1.4043-.94842 4.35864 4.35864 0 0 0-1.7275-.34717h-7.1272a4.30822 4.30822 0 0 0-1.72.34717c-1.0607.4493-1.9053 1.2906-2.3564 2.34716a4.26154 4.26154 0 0 0-.346 1.71322V16h1.4548v-2.7119h13.0624V16h1.4598v-4.4402a4.26226 4.26226 0 0 0-.3511-1.71325ZM42.4706 8.60378h7.1272a2.9063 2.9063 0 0 1 1.1567.23397c.354.15149.6755.36927.9471.64151.2712.26919.4866.58884.634.94084.1542.3602.2324.7481.2298 1.1397v.2767H39.503v-.2767a2.85894 2.85894 0 0 1 .2348-1.1397c.3079-.70625.8715-1.27118 1.5785-1.58235a2.88934 2.88934 0 0 1 1.1543-.23397ZM72.9874 7.15236v8.84024h-1.4446V9.87186l-6.4529 4.98864-6.4403-4.98613v6.11823h-1.4472V7.15236l7.8875 5.87674 7.8975-5.87674Z"/></svg>

<svg width="73" height="16" viewBox="0 0 73 16" xmlns="http://www.w3.org/2000/svg">
<g id="logo">
<path d="M0.899115 0.895596V1.68302H7.5465V2.58616H0.899115V4.26918H0V0H7.5465V0.895596H0.899115Z" />
<path d="M14.4769 2.5862C14.6506 2.58679 14.8226 2.55168 14.982 2.48306C15.1349 2.41767 15.2738 2.32374 15.3912 2.20633C15.6337 1.96172 15.7698 1.63186 15.77 1.28809C15.7718 1.11495 15.7365 0.943418 15.6665 0.784945C15.6017 0.632823 15.5082 0.494479 15.3912 0.377398C15.2731 0.260823 15.1344 0.167003 14.982 0.100669C14.8224 0.0329118 14.6504 -0.00134361 14.4769 4.03208e-05H8.21595V4.27676H9.11506V2.5862H13.2495L14.8128 4.26922H16.0403L14.4769 2.5862ZM9.11506 0.905699H14.4668C14.5181 0.904958 14.5689 0.915256 14.6158 0.935888C14.663 0.957212 14.7058 0.987066 14.7421 1.02394C14.7802 1.06067 14.811 1.10419 14.833 1.15224C14.853 1.19876 14.8632 1.24882 14.8632 1.29941C14.8632 1.34999 14.853 1.40006 14.833 1.44658C14.8116 1.49434 14.7817 1.53782 14.7446 1.57488C14.7083 1.61283 14.6644 1.64281 14.6158 1.66293C14.5689 1.68356 14.5181 1.69386 14.4668 1.69312H9.11506V0.905699Z" />
<path d="M23.7937 1.30066C23.6857 1.04967 23.5315 0.821002 23.3391 0.626446C23.1443 0.431087 22.9137 0.274799 22.6597 0.166069C22.3952 0.0549549 22.1108 -0.00153098 21.8237 3.15533e-05H18.5682C18.2828 -0.00133897 18.0001 0.0551528 17.7373 0.166069C17.4885 0.27738 17.2625 0.43345 17.0705 0.626446C16.8765 0.82021 16.7214 1.04903 16.6134 1.30066C16.5013 1.56227 16.4437 1.84387 16.4442 2.12833V4.26921H17.3231V3.03651H23.0537V4.26921H23.9528V2.12833C23.957 1.84452 23.9029 1.56285 23.7937 1.30066ZM18.5682 0.905691H21.8237C21.9889 0.903895 22.1525 0.93735 22.3036 1.0038C22.6029 1.12741 22.8415 1.36322 22.9678 1.66041C23.0316 1.80998 23.0642 1.97087 23.0638 2.13336L17.3231 2.13839C17.3252 1.97351 17.3613 1.81081 17.4292 1.66041C17.4939 1.5132 17.5855 1.37926 17.6994 1.26544C17.8135 1.15243 17.9481 1.06195 18.0959 0.998773C18.2451 0.935094 18.406 0.903379 18.5682 0.905691Z" />
<path d="M32.0802 0V4.28679H31.1836V1.61509L28.3575 3.80377L25.5313 1.61509V4.28679H24.6372V0L28.3575 2.66918L32.0802 0Z" />
<path d="M33.8153 1.52706C33.7865 1.57725 33.7612 1.62937 33.7395 1.68303H40.3061V2.58617H33.7395C33.7612 2.63984 33.7865 2.69195 33.8153 2.74215C33.8887 2.86679 33.9816 2.97891 34.0906 3.07422C34.1999 3.1685 34.3246 3.24338 34.4593 3.29561C34.5975 3.34708 34.7437 3.37349 34.8912 3.3736H40.3061V4.26919H34.8912C34.6047 4.27068 34.321 4.2133 34.0578 4.10064C33.803 3.99316 33.5715 3.83769 33.3759 3.64278C33.1818 3.44807 33.0267 3.21842 32.9187 2.96605C32.8071 2.70295 32.7496 2.42023 32.7496 2.1346C32.7496 1.84898 32.8071 1.56625 32.9187 1.30316C33.0267 1.05078 33.1818 0.821134 33.3759 0.626429C33.572 0.431567 33.8034 0.27537 34.0578 0.166053C34.3215 0.055405 34.605 -0.00106856 34.8912 1.53107e-05H40.3061V0.905674H34.8912C34.7437 0.905776 34.5975 0.932189 34.4593 0.983662C34.3246 1.03589 34.1999 1.11077 34.0906 1.20505C33.9824 1.29732 33.8895 1.40599 33.8153 1.52706Z" />
<path d="M48.6634 0L46.5798 4.28679L44.7563 1.20251L42.9328 4.28679L40.8517 0H41.8493L43.001 2.52075L44.3876 0H45.1326L46.5091 2.52075L47.6683 0H48.6634Z" />
<path d="M55.9345 1.30317C55.8247 1.05117 55.6688 0.821698 55.4748 0.626446C55.2791 0.431015 55.0476 0.274739 54.7929 0.166069C54.5293 0.0549532 54.2457 -0.00153975 53.9594 3.19143e-05H50.6989C50.4118 -0.00132184 50.1275 0.0551557 49.8629 0.166069C49.6085 0.275387 49.3772 0.431584 49.181 0.626446C48.987 0.821151 48.8318 1.0508 48.7239 1.30317C48.6122 1.56627 48.5547 1.84899 48.5547 2.13462C48.5547 2.42024 48.6122 2.70297 48.7239 2.96606C48.8318 3.21844 48.987 3.44809 49.181 3.64279C49.3766 3.83771 49.6081 3.99318 49.8629 4.10065C50.1269 4.21359 50.4115 4.27097 50.6989 4.26921H53.9594C54.246 4.27121 54.5298 4.21381 54.7929 4.10065C55.048 3.9938 55.2796 3.83826 55.4748 3.64279C55.6688 3.44754 55.8247 3.21807 55.9345 2.96606C56.0444 2.70255 56.101 2.41999 56.101 2.13462C56.101 1.84925 56.0444 1.56669 55.9345 1.30317ZM53.9594 3.37361H50.6989C50.5337 3.37517 50.3702 3.34173 50.219 3.2755C50.0711 3.21232 49.9366 3.12184 49.8225 3.00883C49.7086 2.89501 49.617 2.76108 49.5523 2.61386C49.488 2.46267 49.4554 2.30004 49.4563 2.13588C49.4554 1.9709 49.488 1.80745 49.5523 1.65538C49.617 1.50816 49.7086 1.37423 49.8225 1.26041C49.9366 1.1474 50.0711 1.05692 50.219 0.993741C50.3702 0.92751 50.5337 0.894065 50.6989 0.895628H53.9594C54.1245 0.894369 54.288 0.927801 54.4393 0.993741C54.5872 1.05692 54.7217 1.1474 54.8358 1.26041C54.9486 1.37648 55.0394 1.51202 55.1035 1.66041C55.1698 1.81193 55.2033 1.97564 55.202 2.14091C55.2033 2.30536 55.1697 2.46824 55.1035 2.6189C55.0388 2.7655 54.9481 2.89929 54.8358 3.01386C54.7243 3.12403 54.5933 3.21273 54.4494 3.2755C54.295 3.34284 54.1279 3.3763 53.9594 3.37361Z" />
<path d="M63.0365 2.5862C63.2102 2.58679 63.3822 2.55168 63.5416 2.48306C63.6945 2.41767 63.8334 2.32374 63.9508 2.20633C64.0676 2.08811 64.161 1.94899 64.2261 1.79626C64.2959 1.63772 64.3312 1.46624 64.3296 1.29312C64.3302 1.1201 64.295 0.948812 64.2261 0.789976C64.0961 0.480634 63.8507 0.233547 63.5416 0.100669C63.382 0.0329118 63.21 -0.00134361 63.0365 4.03208e-05H56.773V4.27676H57.6721V2.5862H61.8066L63.3699 4.26922H64.5974L63.0365 2.5862ZM57.6721 0.905699H63.0365C63.087 0.905241 63.1369 0.915534 63.183 0.935888C63.231 0.957195 63.2746 0.987033 63.3118 1.02394C63.3491 1.06077 63.3791 1.1043 63.4002 1.15224C63.4214 1.198 63.4326 1.24774 63.433 1.29815C63.4325 1.3491 63.4222 1.39948 63.4027 1.44658C63.3804 1.49382 63.3506 1.53715 63.3143 1.57488C63.2771 1.61289 63.2324 1.64286 63.183 1.66293C63.1369 1.68328 63.087 1.69358 63.0365 1.69312H57.6721V0.905699Z" />
<path d="M69.0803 2.13585L73 4.26918H71.1412L68.0397 2.57861H65.8778V4.26918H64.9888V0H65.8778V1.69056H68.0397L71.1412 0H73L69.0803 2.13585Z" />
<path d="M16.2068 7.15206V8.61621H8.83709V15.9923H7.36719V8.61621H0V7.15206H16.2068Z" />
<path d="M20.7074 10.1106C20.5737 10.3387 20.4725 10.5842 20.4069 10.8401H34.876V12.3018H20.4069C20.4716 12.558 20.5728 12.8037 20.7074 13.0313C21.0503 13.6354 21.593 14.1022 22.243 14.3521C22.5763 14.4775 22.9297 14.5414 23.2861 14.5408H34.876V15.9999H23.2861C22.6931 16.0023 22.1059 15.8833 21.5611 15.6502C21.0335 15.4288 20.554 15.1075 20.1493 14.7043C19.7444 14.3005 19.4212 13.8231 19.1971 13.298C18.9671 12.7537 18.8486 12.1691 18.8486 11.5785C18.8486 10.9879 18.9671 10.4033 19.1971 9.85901C19.648 8.79855 20.496 7.95481 21.5611 7.50681C22.1061 7.27452 22.6932 7.15635 23.2861 7.15964H34.876V8.60367H23.2861C22.9296 8.60182 22.576 8.6658 22.243 8.79234C21.92 8.91646 21.621 9.09519 21.359 9.32065C21.0998 9.5466 20.8797 9.81347 20.7074 10.1106Z" />
<path d="M53.6741 9.84655C53.4499 9.32703 53.1295 8.85421 52.7296 8.45284C52.3272 8.04949 51.8504 7.72743 51.3253 7.50442C50.7793 7.27234 50.1914 7.15418 49.5978 7.15725H42.4706C41.8794 7.15378 41.2938 7.27198 40.7506 7.50442C39.6899 7.95372 38.8453 8.79502 38.3942 9.85158C38.1617 10.3928 38.0439 10.9761 38.0482 11.5648V16H39.503V13.2881H52.5654V16H54.0252V11.5598C54.0279 10.9707 53.9083 10.3874 53.6741 9.84655ZM42.4706 8.60378H49.5978C49.9954 8.60187 50.3892 8.68151 50.7545 8.83775C51.1085 8.98924 51.43 9.20702 51.7016 9.47926C51.9728 9.74845 52.1882 10.0681 52.3356 10.4201C52.4898 10.7803 52.568 11.1682 52.5654 11.5598V11.8365H39.503V11.5598C39.5023 11.1679 39.5822 10.78 39.7378 10.4201C40.0457 9.71385 40.6093 9.14892 41.3163 8.83775C41.6808 8.68137 42.0737 8.60171 42.4706 8.60378Z" />
<path d="M72.9874 7.15236V15.9926H71.5428V9.87186L65.0899 14.8605L58.6496 9.87437V15.9926H57.2024V7.15236L65.0899 13.0291L72.9874 7.15236Z" />
</g>
</svg>
